X:1
T:James Gibb editions
T:O lieber Herre Gott,  SWV 287 - Schütz
T:#
%%score [ 1 2 ] 3
L:1/8
Q:1/4=150
M:none
K:F
V:1 treble nm="Soprano I"
V:2 treble nm="Soprano II"
V:3 bass nm="Continuo"
V:1
"^O lieber Herr Gott, SWV 287""^Heinrich Schütz\n(1585-1672)" G12 A2 B2 | (^F4 G8) F4 | %2
w: O lie- ber|Her\- * re|
 G8 D2 ED G4- | GGFE A2 A2 F2 GF B4- | BBAG c2 c2 z2 c2 d2 (B2- | B2 AG A4) B8 | z8 B8- | %7
w: Gott we- cke uns auf,|* dass wir be- reit sein, we- cke uns auf,|* dass wir be- reit sein, wenn dein Sohn|* * * * kömmt,|o|
 B4 c2 d2 A4 A4 | G8 z4 D2 ED | G4- GGFE A2 A2 F2 GF | B4- BBAG c2 c2 d2 _e2 | c8 B8 | %12
w: * lie- ber Her- re|Gott we- cke uns|auf, * dass wir be- reit sein, we- cke uns|auf, * dass wir be- reit sein, wenn dein|Sohn kömmt,|
 z2 A2 B2 (G4 ^FE F4) | G8 ||[M:3/2][Q:1/4=250] z4 c4 G4 | A4 G4 E4 | F4 E4 z4 | z4 c4 A4 | %18
w: wenn dein Sohn * * *|kömmt,|ihn mit|Freu- den, mit|Freu- den,|ihn mit|
 B4 A4 ^F4 |[M:3/2][Q:1/4=250][Q:1/4=250][Q:1/4=250] G4 ^F4 A4 | B4 A4 ^F4 | G4 D4 z4 | z12 | %23
w: Freu- den, mit|Freu- den, mit|Freu- den, mit|Freu- den,||
 z4 f4 c4 | d4 c4 A4 | B4 A4 c4 | d4 c4 A4 | d6 d2 d4 | c4 =B8 ||[Q:1/4=150] c8 z8 | z16 | %31
w: ihn mit|Freu- den, mit|Freu- den, mit|Freu- den, mit|Freu- den zu|em- pfa-|hen,||
[Q:1/4=150][Q:1/4=150][Q:1/4=150] z16 | z8 ||[M:3/2][Q:1/4=250] z4 d4 A4 | B4 A4 ^F4 | G4 ^F4 z4 | %36
w: ||ihn mit|Freu- den, mit|Freu- den,|
 z4 d4 =B4 |[M:3/2][Q:1/4=250][Q:1/4=250][Q:1/4=250] c4 =B4 ^G4 | A4 ^G4 =B4 | c6 =B2 A4 | %40
w: ihn mit|Freu- den, mit|Freu- den, mit|Freu- den zu|
 c4 =B8 ||[Q:1/4=130] A8 | z4 F4 F8 |[M:4/2][Q:1/4=130][Q:1/4=130][Q:1/4=130] z2 F2 G2 A2 B8 | %44
w: em- pfa-|hen|und dir|mit rei- nem Her-|
 F4 z2 d2 (^F3 E/F/ G4- | G4 ^F4) G8 | F2 F2 ED C2 DFFE F4 | F4 _E4 D4 C4 | %48
w: zen zu die\- * * *|* * nen,|durch den- sel- bi- gen dei- nen lie- ben Sohn,|Je- sum Chri- stum,|
 (DE/^F/ G3 F/E/ F2) G4 z4 | z16 | d2 d2 cB A2 Bddc d4 | c4 B4 A4 G4 | %52
w: A\- * * * * * * men,||durch den sel- bi- gen dei- nen lie- ben Sohn,|Je- sum Chri- stum,|
 (FG/A/ B3 A/G/ A2) B4 (AB/c/ d2- | d^c/=B/ c2) d4 z8 | z8 d2 d2 cB A2 | Bddc d4 c4 B4 | %56
w: A\- * * * * * * men, A\- * * *|* * * * men,|durch den- sel- bi- gen|dei- nen lie- ben Sohn, Je- sum|
 A4 G4 (CD/E/ F3 E/D/ E2 | FG/A/ B3 A AG/F/ GA/=B/ c3 B/A/ B2) | c4 z4 G4 F4 | %59
w: Chri- stum, A\- * * * * * *||men, Je- sum|
 _E4 C4 (D2 =E^F G4- | G2 ^FE F4) G16 |] %61
w: Chri stum, A\- * * *|* * * * men.|
V:2
 z16 | z16 | z16 | z16 | z16 | z16 | G12 A2 B2 | (^F4 G8) F4 | G8 D2 ED G4- | %9
w: ||||||O lie- ber|Her\- * re|Gott we- cke uns auf,|
 GGFE A2 A2 F2 GF B4- | BBAG c2 c2 z2 A2 B2 (B2- | B2 AG A4) B8 | z4 d2 _e2 c8 | =B8 || %14
w: * dass wir be- reit sein, we- cke uns auf,|* dass wir be- reit sein, wemi dein Sohn|* * * * kömmt,|wenn dein Sohn|kömmt,|
[M:3/2] z12 | z4 c4 G4 | A4 G4 E4 | F4 E4 z4 | z4 d4 A4 |[M:3/2] B4 A4 ^F4 | G4 ^F4 A4 | B6 B2 B4 | %22
w: |ihn mit|Freu- den, mit|Freu- den,|ihn mit|Freu- den, mit|Freu- den, mit|Freu- den zu|
 A4 G8 | F8 z4 | z4 f4 c4 | d4 c4 A4 | B4 A4 c4 | f6 f2 f4 | _e4 d8 || c8 z4 G4 | G8 z2 G2 G2 A2 | %31
w: em- pfa-|hen,|ihn mit|Freu- den, mit|Freu- den, mit|Freu- den zu|em- pfa-|hen, und|dir mit rei- nem|
 B8 A4 z2 B2 | E8 ||[M:3/2] D8 z4 | z4 d4 A4 | B4 A4 ^F4 | G4 ^F4 z4 |[M:3/2] z4 e4 =B4 | %38
w: Her- zen zu|die-|nen,|ihn mit|Freu- den, mit|Freu- den,|ihn mit|
 c4 =B4 ^G4 | A6 =B2 c4 | A4 ^G8 || A8 | z4 A4 A8 |[M:4/2] z2 A2 B2 c2 d8 | c4 z4 z4 z2 _e2 | %45
w: Freu- den, mit|Freu- den zu|em- pfa-|hen|und dir|mit rei- nem Her-|zen zu|
 A8 G8 | z16 | z16 | d2 d2 cB A2 Bddc d4 | c4 B4 A4 G4 | (FE/^F/ G3 F/E/ F2) G2 G2 =FE D2 | %51
w: die- nen,|||durch den- sel- bi- gen dei- nen lie- ben Sohn,|Je- su Chri- stum,|A\- * * * * * * men, den- sel- bi- gen|
 EGG^F G4 =F4 _E4 | D4 C4 (DE/^F/ G3 =F FE/D/ | E4 D4 d2 d2 cB A2 | Bddc d4 B2 B2 AG F2 | %55
w: dei- nen lie- ben Sohn, Je- sum|Chri- stum, A\- * * * * * * *|* men, durch den- sel- bi- gen|dei- nen lie- ben Sohn durch den- sel- bi- gen|
 GBAG A4 z8 | c4 B4 A4 G4 | z4 CD/E/ F3 _E ED/C/ D4) | C2 G2 F4 _E4 D4 | (G2 AB c6 B2 B2 AG | %60
w: die- nen lie- ben Sohn,|Je- sum Chri- stum,|A\- * * * * * * * *|men, Je- sum Chri- stum,|A\- * * * * * * *|
 A8) G16 |] %61
w: * men.|
V:3
 G,,16 | D,16 | G,,8 B,,4 =B,,4 | C,4 ^C,4 D,4- D,4 | _E,4 =E,4 F,4 B,,4 | F,8 B,,8 | G,,16 | %7
w: |~~~~~~~~4|* * 6|* 6 * 6|* 6 * *|4~~~~~~~~3 *||
w: |||||||
 D,8 D,8 | G,,8 B,,4 =B,,4 | C,4 ^C,4 D,4 D,4 | _E,4 =E,4 F,4 B,,2 _E,2 | F,8 B,,8 | %12
w: 6 4|* * 6|* 6 * 6|* 6 * * *|4~~~~~~3 *|
w: ~~~~~~~4 *|||||
 D,4 B,,2 C,2 A,,8 | G,,8 ||[M:3/2] C,8 C,4 | F,,4 C,8 | F,4 C,8 | F,,4 C,4 D,4 | G,,4 D,8 | %19
w: * * * 7~~~~~~~~6|||||||
w: |||||||
[M:3/2] G,4 D,8 | G,,4 D,8 | G,,6 G,,2 B,,4 | F,,4 C,8 | F,,8 F,4 | B,4 F,8 | B,,4 F,8 | B,4 F,8 | %27
w: ||||||||
w: ||||||||
 B,,6 B,,2 B,,4 | C,4 G,8 || C,8 z4 C,4 | C,8 z2 C,2 C,2 A,,2 | G,,8 ^F,,4 G,,4 | A,,8 || %33
w: |||||4|
w: ||||||
[M:3/2] D,8 D,4 | G,4 D,8 | G,,4 D,8 | G,4 D,4 E,4 |[M:3/2] A,,4 E,8 | A,4 E,8 | A,,6 =G,,2 F,,4 | %40
w: |||||||
w: |||||||
 A,,4 E,8 || A,,8 | z4 F,4 F,8 |[M:4/2] z2 F,2 _E,2 C,2 B,,8 | A,,4 G,,4 D,4 C,4 | D,8 G,,8 | %46
w: |||* 6 6 *|6 * * *|4 *|
w: ||||||
 F,4 C,2 A,,2 B,,2 C,2 F,4 | D,4 C,4 B,,4 A,,4 | B,,4 A,,4 G,,2 _E,2 D,4 | F,4 G,4 F,4 C,4 | %50
w: ||5~~~~~~6 7~~~~~6 * 7~~~~~6 *||
w: ||||
 B,,4 A,,4 G,,2 _E,2 D,2 B,,2 | C,2 A,,2 G,,2 _E,2 F,E, D,2 E,2 C,2 | %52
w: 5~~~~~~~~6 7~~~~~~~~6 * 7~~~~6 * *|* 7~~~~6 * * * * * * *|
w: ||
 D,2 B,,2 F,4 B,,2- B,,C, D,4 | A,,4 D,4 B,,4 F,4 | G,2 _E,2 D,4 B,,4 F,4 | %55
w: * * 4~~~~3 * 6 * *|4 * * *|* 7~~~~6 * * *|
w: |||
 _E,D, E,2 D,4 F,,4 G,,4 | F,,4 G,,4 A,,2- A,,B,, C,4 | D,2 D,E, F,4 C,4 G,4 | C,4 D,4 _E,4 B,,4 | %59
w: * 6 7~~~~~6 * * *|* * * 6 * 4~~~~~~~~~3|* 6 * 4~~~~~~~3 * 4||
w: ||||
 C,8 G,,8 | D,8 G,,16 |] %61
w: * 4~~~~~~~~~~~~3|4 *|
w: ||

